X: 619
T: Tiao cai
L: 1/8
M: 2/4
K: F
F G d c [I:setbarnb 1]| 
G2B c | 
G F C F | 
F2G2 | 
c2d/ f/ d/ c/ | 
B2G f | 
d c B G | 
F4 |]

@@@ Tune index: 9493
